X:819
T:Xiraldilla (CT 241)
R:Xiraldilla
C:Tradicional
S:Msica Tradicional Asturiana, (C) Tello & Tito. Asturies, 2001.
S:http://pagina.de/MusTradAst <telloytito@asturies.org>
N:Xiraldilla, dictada por Catalina Muiz Llano, de cincuenta aos, de Llamo, ayuntamiento de Riosa.
A:Asturies
O:Llamo (Riosa)
Z:Cancioneru de Torner 241
M:2/4
L:1/8
Q:1/4=160
K:G
|: G2 B2|d3 B|d2 (c>A)|B3 c|d2 (c>A)|B3 G|A2 G2|[1 G2 z2 :|[2 G2 zG|
|: c2 c2|B2 BG|F2 G2|G3 G :|
c2 c2|B2 BG|F2 G2|G4||
W:-Por qu lloras, dama hermosa
W:-Pues no tengo de llorar!
W:Pas por aqu mi amante
W:y no me ha querido hablar.
W:con otra dama se va a casar
W:y a mi solita me va a dejar,
W:solita y sola,
W:para llorar.
W:
